!!!id: EG053
!!!page: 20
!!!COM: Anonymous
!!!LYR: Anonymous
!!!PTL@@FR: Chansons Populaires du Canada
!!!OTL@@FR: J'aim'rai tendrement ces amants constant
!!!PUB: G. E. Desbarats
!!!YEM:
!!!PDT: 1865
!!!SMA:
!!!OMD:
!!!AGN-Laforte:
!!!AGN-type:
!!!AGN-rime:
**kern
*clefG2
*k[]
*C:
*M2/4
*
*
8cc
=1
8cc
8a
4g
=2
4cc
8a\
8b
=3
*M2/8
8cc
8dd
!!LO:PB:g=original
=4
*M2/4
8cc
8a\
4g
=5
4cc
8a\
8b
=6
4cc
8r
=||
8g
!!LO:PB:g=original
=7
8cc
8dd
8dd
8ee
=8
8cc
8ee
4dd
=9
8.cc
16b
8a\
8b
!!LO:PB:g=original
=10
4g
8e
8g
=11
8a\
8b
8.cc
16cc
=12
8cc
8ee
8dd
8cc
!!LO:PB:g=original
=13
(4a
*cue
8g)
*Xcue
8e
8g
=14
8a
8b
8cc
=||
8r
==||
*
*
==|
